X: 77
T: COUNTESS OF LAUDERDALE'S
%R: reel
B: Jean White "100 Popular Hornpipes, Reels, Jigs and Country Dances", Boston 1880 p.32
F: http://www.loc.gov/resource/sm1880.09124.0#seq-1
Z: 2014 John Chambers <jc:trillian.mit.edu>
M: C|
L: 1/8
K: A
% - - - - - - - - - - - - - - - - - - - - - - - - - - - - -
e |\
a2ec fdec | (bB)(Bc) edcB |\
[AA](AGA) (FA)(EA) | BcdB c2(AE) |
A2EC FDEC | B,B2c dcdB |\
AcBd cedf | edcB c2A :|
|: E |\
A2(AE) FEAE | A2AE ABcB |\
[AA](AGA) (FA)(EA) | BcdB c2(AE) |
A2(AE) FEAE | A2Ag edcB |\
AaBa cada | (3fga ed c2A H:|
% - - - - - - - - - - - - - - - - - - - - - - - - - - - - -

%%sep 1 1 500
%%sep 1 1 500
